X: 1
T:Hieland Man Came Over The Hill,The. BF14.01
M:C
Q:200
S:MS14,Browne "D",early 19thC,Troutbeck,W'morland
R:Reel
O:England
A:Lake District
Z:vmp.Chris Partington
K:G
f|eAAB edBd|eAAB GABd|eAAB edBd|edgBA2A:|!
|:g|edeg abag|dedB d"f in MS"gdB|edef gage|dBgB|A2A:|]
